X: 13630
T: Foghorn
R: hornpipe
M: 4/4
K: Dmajor
|:dB|A^GAF DFAc|dcec dBAF|GGBG FFAF|FEGE DCB,A,|
A2 AF DFAc|dcec Acef|gffe eddc|dA (3FGA D2:|
|:cd|e^dec Acef|gfaf d2 cd|BdAd BdAd|Bgfe dcdB|
A^GAF DFAc|dcec Acef|gffe eddc|dA (3FGA D2:|

